packages/icons/src/svg/Update.svg

<svg width="20" height="20" viewBox="0 0 20 20" fill="none" xmlns="http://www.w3.org/2000/svg">
<path fill-rule="evenodd" clip-rule="evenodd" d="M10.4339 1.95001C11.5975 1.94802 12.7457 2.2162 13.7881 2.73345C14.8309 3.25087 15.7392 4.0034 16.4416 4.93172C17.1439 5.86004 17.6211 6.93879 17.8354 8.08295C18.0498 9.22712 17.9955 10.4054 17.6769 11.525C17.3582 12.6447 16.7839 13.675 15.9992 14.5348C15.2144 15.3946 14.2408 16.0604 13.1549 16.4798C12.0689 16.8991 10.9005 17.0606 9.74154 16.9514C8.72148 16.8553 7.73334 16.5518 6.83716 16.0612L4.29488 17.2723C3.23215 17.7786 2.12265 16.6693 2.6287 15.6064L3.83941 13.0637C3.26482 12.0144 2.94827 10.8411 2.91892 9.64118C2.88616 8.30174 3.21245 6.97794 3.86393 5.80714C4.51541 4.63635 5.46834 3.66124 6.62383 2.98299C7.77896 2.30495 9.09445 1.9483 10.4339 1.95001ZM10.4339 1.95001C10.4343 1.95001 10.4347 1.95001 10.4351 1.95001L10.434 2.70001L10.4326 1.95001C10.433 1.95001 10.4334 1.95001 10.4339 1.95001ZM13.1214 4.07712C12.2867 3.66294 11.3672 3.44826 10.4354 3.45001L10.4329 3.45001C9.3608 3.44846 8.30778 3.73387 7.38315 4.2766C6.45852 4.81934 5.69598 5.59963 5.17467 6.5365C4.65335 7.47337 4.39226 8.53268 4.41847 9.6045C4.44469 10.6763 4.75726 11.7216 5.32376 12.6319C5.45882 12.8489 5.47405 13.1198 5.36416 13.3506L4.28595 15.6151L6.54996 14.5366C6.78072 14.4266 7.05158 14.4418 7.26863 14.5768C8.05985 15.0689 8.95456 15.3706 9.88225 15.458C10.8099 15.5454 11.7452 15.4162 12.6145 15.0805C13.4837 14.7448 14.2631 14.2119 14.8912 13.5236C15.5194 12.8354 15.9791 12.0106 16.2341 11.1144C16.4892 10.2182 16.5327 9.27504 16.3611 8.35918C16.1895 7.44332 15.8075 6.57983 15.2453 5.83674C14.6831 5.09366 13.9561 4.49129 13.1214 4.07712Z" fill="currentColor"/>
</svg>

<svg xmlns="http://www.w3.org/2000/svg" width="20" height="20" fill="none" viewBox="0 0 20 20">
  <path fill="currentColor" fill-rule="evenodd" d="M10.437 1.95a7.512 7.512 0 0 1 6.006 2.982 7.517 7.517 0 0 1-9.604 11.13l-2.543 1.21c-1.062.507-2.172-.602-1.666-1.665l1.21-2.543A7.508 7.508 0 0 1 10.438 1.95Zm2.686 2.127a6.017 6.017 0 0 0-2.686-.627h-.003a6.007 6.007 0 0 0-5.109 9.182.75.75 0 0 1 .04.719l-1.078 2.264 2.264-1.078a.75.75 0 0 1 .719.04 6.018 6.018 0 1 0 5.853-10.5Z" clip-rule="evenodd"/>
</svg>
